images/inverter_schematic.svg

<?xml version="1.0" encoding="UTF-8" standalone="no"?>
<svg
   xmlns:dc="http://purl.org/dc/elements/1.1/"
   xmlns:cc="http://creativecommons.org/ns#"
   xmlns:rdf="http://www.w3.org/1999/02/22-rdf-syntax-ns#"
   xmlns:svg="http://www.w3.org/2000/svg"
   xmlns="http://www.w3.org/2000/svg"
   xmlns:sodipodi="http://sodipodi.sourceforge.net/DTD/sodipodi-0.dtd"
   xmlns:inkscape="http://www.inkscape.org/namespaces/inkscape"
   font-size="12px"
   font-style="normal"
   font-weight="normal"
   height="118"
   stroke-miterlimit="10"
   width="1750"
   id="svg2"
   version="1.1"
   inkscape:version="0.91 r13725"
   sodipodi:docname="inverter_schematic.svg"
   style="font-style:normal;font-weight:normal;font-size:12px;font-family:Dialog;color-interpolation:auto;fill:#000000;fill-opacity:1;stroke:#000000;stroke-width:1;stroke-linecap:square;stroke-linejoin:miter;stroke-miterlimit:10;stroke-dasharray:none;stroke-dashoffset:0;stroke-opacity:1;color-rendering:auto;image-rendering:auto;shape-rendering:auto;text-rendering:auto">
  <metadata
     id="metadata69">
    <rdf:RDF>
      <cc:Work
         rdf:about="">
        <dc:format>image/svg+xml</dc:format>
        <dc:type
           rdf:resource="http://purl.org/dc/dcmitype/StillImage" />
        <dc:title></dc:title>
      </cc:Work>
    </rdf:RDF>
  </metadata>
  <sodipodi:namedview
     pagecolor="#ffffff"
     bordercolor="#666666"
     borderopacity="1"
     objecttolerance="10"
     gridtolerance="10"
     guidetolerance="10"
     inkscape:pageopacity="0"
     inkscape:pageshadow="2"
     inkscape:window-width="1920"
     inkscape:window-height="1058"
     id="namedview67"
     showgrid="false"
     inkscape:zoom="0.67657143"
     inkscape:cx="979.74498"
     inkscape:cy="-166.5587"
     inkscape:window-x="-8"
     inkscape:window-y="-8"
     inkscape:window-maximized="1"
     inkscape:current-layer="svg2" />
  <!--Generated by the Batik Graphics2D SVG Generator-->
  <defs
     id="genericDefs" />
  <g
     id="g5"
     transform="translate(740.56954,8.5319)">
    <g
       transform="matrix(50,0,0,50,233.49,63.885)"
       id="g7"
       style="fill:#ffffff;stroke:#ffffff;stroke-width:0.06">
      <path
         d="M -0.13,-0.13 0,-0.13 0.13,0 0,0.13 l -0.13,0 z"
         id="path9"
         inkscape:connector-curvature="0"
         style="stroke:none" />
      <path
         d="M -0.13,-0.13 0,-0.13 0.13,0 0,0.13 l -0.13,0 z"
         id="path11"
         inkscape:connector-curvature="0"
         style="fill:none;stroke:#000000" />
    </g>
    <g
       font-size="0.5px"
       font-style="italic"
       transform="matrix(50,0,0,50,233.4922,63.8831)"
       id="g13"
       style="font-style:italic;font-size:0.5px;font-family:sans-serif;fill:#0000ff;stroke:#0000ff;stroke-width:0.06">
      <path
         d="m 0.33,0.14 0.0777,-0.3884 0.0481,0 -0.0341,0.1701 q 0.0407,-0.0556 0.0998,-0.0556 0.0479,0 0.0683,0.0349 0.0205,0.0349 0.0084,0.0954 -0.0132,0.066 -0.0524,0.1064 -0.0392,0.0404 -0.09,0.0404 -0.0471,0 -0.0711,-0.0362 L 0.3722,0.14 Z M 0.3913,0.0738 q 0.0305,0.0332 0.0642,0.0332 0.0693,0 0.0905,-0.1057 0.0186,-0.0932 -0.0429,-0.0932 -0.0403,0 -0.0874,0.0437 z"
         id="path15"
         inkscape:connector-curvature="0"
         style="stroke:none" />
    </g>
    <g
       font-size="0.5px"
       font-style="italic"
       transform="matrix(50,0,0,50,33.4922,63.8831)"
       id="g17"
       style="font-style:italic;font-size:0.5px;font-family:sans-serif;fill:#ffffff;stroke:#ffffff;stroke-width:0.06">
      <path
         d="M -0.13,-0.13 0,-0.13 0.13,0 0,0.13 l -0.13,0 z"
         id="path19"
         inkscape:connector-curvature="0"
         style="stroke:none" />
      <path
         d="M -0.13,-0.13 0,-0.13 0.13,0 0,0.13 l -0.13,0 z"
         id="path21"
         inkscape:connector-curvature="0"
         style="fill:none;stroke:#000000" />
    </g>
    <g
       font-size="0.5px"
       font-style="italic"
       transform="matrix(50,0,0,50,33.4922,63.8831)"
       id="g23"
       style="font-style:italic;font-size:0.5px;font-family:sans-serif;fill:#ff0000;stroke:#ff0000;stroke-width:0.06">
      <path
         d="m -0.4105,0.0633 q -0.0511,0.0398 -0.0912,0.0398 -0.0329,0 -0.0505,-0.0206 -0.0176,-0.0207 -0.0113,-0.0522 0.0086,-0.0434 0.0498,-0.0667 0.0412,-0.0234 0.1093,-0.0234 l 0.0115,0 0.0064,-0.0319 q 0.0092,-0.0462 -0.0382,-0.0462 -0.0381,0 -0.0869,0.0235 l 0.0079,-0.0398 q 0.0526,-0.0198 0.095,-0.0198 0.0445,0 0.0616,0.02 0.0171,0.02 0.0087,0.0623 l -0.0241,0.1201 q -0.0082,0.0412 0.0172,0.0412 0.0031,0 0.0094,-9e-4 l -0.0019,0.0266 q -0.0179,0.0078 -0.0377,0.0078 -0.0337,0 -0.035,-0.0398 z m -0.0018,-0.0261 0.0137,-0.0686 -0.016,-5e-4 q -0.0396,0 -0.067,0.015 -0.0274,0.015 -0.0323,0.0394 -0.0035,0.0174 0.0064,0.0293 0.0098,0.012 0.0274,0.012 0.03,0 0.0678,-0.0266 z"
         id="path25"
         inkscape:connector-curvature="0"
         style="stroke:none" />
    </g>
    <g
       font-size="0.5px"
       font-style="italic"
       transform="matrix(50,0,0,50,125.9922,63.8831)"
       id="g27"
       style="font-style:italic;font-size:0.5px;font-family:sans-serif;fill:#ffffff;stroke:#ffffff;stroke-width:0.06">
      <path
         d="m -0.5,-0.5 0,1 1,-0.5 z"
         id="path29"
         inkscape:connector-curvature="0"
         style="stroke:none" />
      <path
         d="m -0.5,-0.5 0,1 1,-0.5 z"
         id="path31"
         inkscape:connector-curvature="0"
         style="fill:none;stroke:#000000" />
      <circle
         cx="0"
         cy="0"
         r="0.15000001"
         transform="translate(0.65,0)"
         id="circle33"
         style="stroke:none" />
      <circle
         cx="0"
         cy="0"
         r="0.15000001"
         transform="translate(0.65,0)"
         id="circle35"
         style="fill:none;stroke:#000000" />
      <line
         transform="translate(0.15,0)"
         x1="0.64999998"
         x2="1"
         y1="0"
         y2="0"
         id="line37"
         style="fill:none;stroke:#000000;stroke-width:0.04" />
      <line
         transform="translate(0.15,0)"
         x1="-0.64999998"
         x2="-1"
         y1="0"
         y2="0"
         id="line39"
         style="fill:none;stroke:#000000;stroke-width:0.04" />
    </g>
    <g
       font-size="0.5px"
       transform="matrix(50,0,0,50,133.4922,63.8831)"
       id="g41"
       style="font-size:0.5px;font-family:sans-serif;fill:#0000ff;stroke:#0000ff;stroke-width:0.04">
      <path
         d="m -0.9044,-0.8102 0,-0.2652 0.0481,0 0,0.2652 z m 0,-0.3133 0,-0.0481 0.0481,0 0,0.0481 z m 0.1445,0.3133 0,-0.2652 0.0481,0 0,0.0498 q 0.0381,-0.0556 0.0933,-0.0556 0.0344,0 0.0549,0.0218 0.0205,0.0219 0.0205,0.0587 l 0,0.1905 -0.0481,0 0,-0.1748 q 0,-0.0296 -0.0087,-0.0421 -0.0086,-0.0126 -0.0286,-0.0126 -0.0442,0 -0.0833,0.0578 l 0,0.1717 z m 0.3652,0 -0.0986,-0.2652 0.0481,0 0.0772,0.2063 0.0813,-0.2063 0.0449,0 -0.1048,0.2652 z m 0.3982,-0.0086 q -0.0483,0.0147 -0.0827,0.0147 -0.0586,0 -0.0956,-0.039 -0.037,-0.0389 -0.037,-0.1009 0,-0.0603 0.0326,-0.0989 0.0326,-0.0386 0.0834,-0.0386 0.0481,0 0.0743,0.0342 0.0263,0.0342 0.0263,0.0972 l -3e-4,0.0149 -0.1672,0 q 0.0105,0.0945 0.0925,0.0945 0.03,0 0.0737,-0.0162 z m -0.164,-0.1526 0.1169,0 q 0,-0.0739 -0.0552,-0.0739 -0.0554,0 -0.0617,0.0739 z m 0.2483,0.1612 0,-0.2652 0.0481,0 0,0.0498 q 0.0285,-0.0556 0.083,-0.0556 0.0073,0 0.0154,0.0012 l 0,0.0449 q -0.0125,-0.0041 -0.022,-0.0041 -0.0457,0 -0.0764,0.0542 l 0,0.1748 z m 0.2841,0.0061 q -0.0366,0 -0.0571,-0.021 -0.0205,-0.021 -0.0205,-0.0584 l 0,-0.1557 -0.0332,0 0,-0.0362 0.0332,0 0,-0.0481 0.0481,-0.0046 0,0.0527 0.0693,0 0,0.0362 -0.0693,0 0,0.1469 q 0,0.052 0.0449,0.052 0.0096,0 0.0232,-0.0031 l 0,0.0332 q -0.0222,0.0061 -0.0386,0.0061 z m 0.3018,-0.0147 q -0.0483,0.0147 -0.0828,0.0147 -0.0586,0 -0.0955,-0.039 -0.037,-0.0389 -0.037,-0.1009 0,-0.0603 0.0326,-0.0989 0.0326,-0.0386 0.0833,-0.0386 0.0481,0 0.0744,0.0342 0.0262,0.0342 0.0262,0.0972 l -2e-4,0.0149 -0.1673,0 q 0.0105,0.0945 0.0926,0.0945 0.03,0 0.0737,-0.0162 z m -0.1641,-0.1526 0.117,0 q 0,-0.0739 -0.0552,-0.0739 -0.0554,0 -0.0618,0.0739 z m 0.2483,0.1612 0,-0.2652 0.0481,0 0,0.0498 q 0.0286,-0.0556 0.083,-0.0556 0.0074,0 0.0154,0.0012 l 0,0.0449 q -0.0124,-0.0041 -0.022,-0.0041 -0.0456,0 -0.0764,0.0542 l 0,0.1748 z"
         id="path43"
         inkscape:connector-curvature="0"
         style="stroke:none" />
    </g>
    <g
       font-size="0.5px"
       font-style="italic"
       transform="matrix(50,0,0,50,133.4922,113.8831)"
       id="g47"
       style="font-style:italic;font-size:0.5px;font-family:sans-serif;stroke-width:0.04">
      <path
         d="m 1.11,-1 0.76,0"
         id="path49"
         inkscape:connector-curvature="0"
         style="fill:none" />
      <path
         d="m 1.87,-1.075 0,0.15 0,-0.075 z"
         id="path51"
         inkscape:connector-curvature="0"
         style="stroke:none" />
    </g>
    <g
       font-size="0.5px"
       font-style="italic"
       transform="matrix(50,0,0,50,133.4922,113.8831)"
       id="g53"
       style="font-style:italic;font-size:0.5px;font-family:sans-serif;stroke-width:0.04">
      <line
         x1="1"
         x2="1.11"
         y1="-1"
         y2="-1"
         id="line55"
         style="fill:none" />
    </g>
    <g
       font-size="0.5px"
       font-style="italic"
       transform="matrix(50,0,0,50,133.4922,113.8831)"
       id="g57"
       style="font-style:italic;font-size:0.5px;font-family:sans-serif;stroke-width:0.04">
      <path
         d="m -1.87,-1 0.76,0"
         id="path59"
         inkscape:connector-curvature="0"
         style="fill:none" />
      <path
         d="m -1.11,-1.075 0,0.15 0,-0.075 z"
         id="path61"
         inkscape:connector-curvature="0"
         style="stroke:none" />
    </g>
    <g
       font-size="0.5px"
       font-style="italic"
       transform="matrix(50,0,0,50,133.4922,113.8831)"
       id="g63"
       style="font-style:italic;font-size:0.5px;font-family:sans-serif;stroke-width:0.04">
      <line
         x1="-1.11"
         x2="-1"
         y1="-1"
         y2="-1"
         id="line65"
         style="fill:none" />
    </g>
  </g>
</svg>

<?xml version="1.0" encoding="UTF-8"?>
<!DOCTYPE svg PUBLIC '-//W3C//DTD SVG 1.0//EN'
          'http://www.w3.org/TR/2001/REC-SVG-20010904/DTD/svg10.dtd'>
<svg color-interpolation="auto" color-rendering="auto" fill="black" fill-opacity="1" font-family="'Dialog'" font-size="12px" font-style="normal" font-weight="normal" height="134" image-rendering="auto" shape-rendering="auto" stroke="black" stroke-dasharray="none" stroke-dashoffset="0" stroke-linecap="square" stroke-linejoin="miter" stroke-miterlimit="10" stroke-opacity="1" stroke-width="1" text-rendering="auto" width="1750" xmlns="http://www.w3.org/2000/svg" xmlns:xlink="http://www.w3.org/1999/xlink"
><!--Generated by the Batik Graphics2D SVG Generator--><defs id="genericDefs"
  /><g
  ><g fill="white" stroke="white" stroke-width="0.06" transform="scale(50,50) translate(2.6698,2.2777) matrix(1,0,0,1,2,-1)"
    ><path d="M-0.13 -0.13 L0 -0.13 L0.13 0 L0 0.13 L-0.13 0.13 Z" stroke="none"
      /><path d="M-0.13 -0.13 L0 -0.13 L0.13 0 L0 0.13 L-0.13 0.13 Z" fill="none" stroke="black"
    /></g
    ><g fill="blue" font-family="sans-serif" font-size="0.5px" font-style="italic" stroke="blue" stroke-width="0.06" transform="matrix(50,0,0,50,233.4922,63.8831)"
    ><path d="M0.33 0.14 L0.4077 -0.2484 L0.4558 -0.2484 L0.4217 -0.0783 Q0.4624 -0.1339 0.5215 -0.1339 Q0.5694 -0.1339 0.5898 -0.099 Q0.6103 -0.0641 0.5982 -0.0036 Q0.585 0.0624 0.5458 0.1028 Q0.5066 0.1432 0.4558 0.1432 Q0.4087 0.1432 0.3847 0.107 L0.3722 0.14 ZM0.3913 0.0738 Q0.4218 0.107 0.4555 0.107 Q0.5248 0.107 0.546 0.0013 Q0.5646 -0.0919 0.5031 -0.0919 Q0.4628 -0.0919 0.4157 -0.0482 Z" stroke="none"
    /></g
    ><g fill="white" font-family="sans-serif" font-size="0.5px" font-style="italic" stroke="white" stroke-width="0.06" transform="matrix(50,0,0,50,33.4922,63.8831)"
    ><path d="M-0.13 -0.13 L0 -0.13 L0.13 0 L0 0.13 L-0.13 0.13 Z" stroke="none"
      /><path d="M-0.13 -0.13 L0 -0.13 L0.13 0 L0 0.13 L-0.13 0.13 Z" fill="none" stroke="black"
    /></g
    ><g fill="red" font-family="sans-serif" font-size="0.5px" font-style="italic" stroke="red" stroke-width="0.06" transform="matrix(50,0,0,50,33.4922,63.8831)"
    ><path d="M-0.4105 0.0633 Q-0.4616 0.1031 -0.5017 0.1031 Q-0.5346 0.1031 -0.5522 0.0825 Q-0.5698 0.0618 -0.5635 0.0303 Q-0.5549 -0.0131 -0.5137 -0.0364 Q-0.4725 -0.0598 -0.4044 -0.0598 L-0.3929 -0.0598 L-0.3865 -0.0917 Q-0.3773 -0.1379 -0.4247 -0.1379 Q-0.4628 -0.1379 -0.5116 -0.1144 L-0.5037 -0.1542 Q-0.4511 -0.174 -0.4087 -0.174 Q-0.3642 -0.174 -0.3471 -0.154 Q-0.33 -0.134 -0.3384 -0.0917 L-0.3625 0.0284 Q-0.3707 0.0696 -0.3453 0.0696 Q-0.3422 0.0696 -0.3359 0.0687 L-0.3378 0.0953 Q-0.3557 0.1031 -0.3755 0.1031 Q-0.4092 0.1031 -0.4105 0.0633 ZM-0.4123 0.0372 L-0.3986 -0.0314 L-0.4146 -0.0319 Q-0.4542 -0.0319 -0.4816 -0.0169 Q-0.509 -0.0019 -0.5139 0.0225 Q-0.5174 0.0399 -0.5075 0.0518 Q-0.4977 0.0638 -0.4801 0.0638 Q-0.4501 0.0638 -0.4123 0.0372 Z" stroke="none"
    /></g
    ><g fill="white" font-family="sans-serif" font-size="0.5px" font-style="italic" stroke="white" stroke-width="0.06" transform="matrix(50,0,0,50,133.4922,63.8831) translate(-0.15,0)"
    ><path d="M-0.5 -0.5 L-0.5 0.5 L0.5 0 Z" stroke="none"
      /><path d="M-0.5 -0.5 L-0.5 0.5 L0.5 0 Z" fill="none" stroke="black"
      /><circle cx="0" cy="0" r="0.15" stroke="none" transform="translate(0.65,0)"
      /><circle cx="0" cy="0" fill="none" r="0.15" stroke="black" transform="translate(0.65,0)"
      /><line fill="none" stroke="black" stroke-width="0.04" transform="translate(0.15,0)" x1="0.65" x2="1" y1="0" y2="0"
      /><line fill="none" stroke="black" stroke-width="0.04" transform="translate(0.15,0)" x1="-0.65" x2="-1" y1="0" y2="0"
    /></g
    ><g fill="blue" font-family="sans-serif" font-size="0.5px" stroke="blue" stroke-width="0.04" transform="matrix(50,0,0,50,133.4922,63.8831)"
    ><path d="M-0.9044 -0.8102 L-0.9044 -1.0754 L-0.8563 -1.0754 L-0.8563 -0.8102 ZM-0.9044 -1.1235 L-0.9044 -1.1716 L-0.8563 -1.1716 L-0.8563 -1.1235 ZM-0.7599 -0.8102 L-0.7599 -1.0754 L-0.7118 -1.0754 L-0.7118 -1.0256 Q-0.6737 -1.0812 -0.6185 -1.0812 Q-0.5841 -1.0812 -0.5636 -1.0594 Q-0.5431 -1.0375 -0.5431 -1.0007 L-0.5431 -0.8102 L-0.5912 -0.8102 L-0.5912 -0.985 Q-0.5912 -1.0146 -0.5999 -1.0271 Q-0.6085 -1.0397 -0.6285 -1.0397 Q-0.6727 -1.0397 -0.7118 -0.9819 L-0.7118 -0.8102 ZM-0.3947 -0.8102 L-0.4933 -1.0754 L-0.4452 -1.0754 L-0.368 -0.8691 L-0.2867 -1.0754 L-0.2418 -1.0754 L-0.3466 -0.8102 ZM0.0035 -0.8188 Q-0.0448 -0.8041 -0.0792 -0.8041 Q-0.1378 -0.8041 -0.1748 -0.8431 Q-0.2118 -0.882 -0.2118 -0.944 Q-0.2118 -1.0043 -0.1792 -1.0429 Q-0.1466 -1.0815 -0.0958 -1.0815 Q-0.0477 -1.0815 -0.0215 -1.0473 Q0.0048 -1.0131 0.0048 -0.9501 L0.0045 -0.9352 L-0.1627 -0.9352 Q-0.1522 -0.8407 -0.0702 -0.8407 Q-0.0402 -0.8407 0.0035 -0.8569 ZM-0.1605 -0.9714 L-0.0436 -0.9714 Q-0.0436 -1.0453 -0.0988 -1.0453 Q-0.1542 -1.0453 -0.1605 -0.9714 ZM0.0878 -0.8102 L0.0878 -1.0754 L0.1359 -1.0754 L0.1359 -1.0256 Q0.1644 -1.0812 0.2189 -1.0812 Q0.2262 -1.0812 0.2343 -1.08 L0.2343 -1.0351 Q0.2218 -1.0392 0.2123 -1.0392 Q0.1666 -1.0392 0.1359 -0.985 L0.1359 -0.8102 ZM0.3719 -0.8041 Q0.3353 -0.8041 0.3148 -0.8251 Q0.2943 -0.8461 0.2943 -0.8835 L0.2943 -1.0392 L0.2611 -1.0392 L0.2611 -1.0754 L0.2943 -1.0754 L0.2943 -1.1235 L0.3424 -1.1281 L0.3424 -1.0754 L0.4117 -1.0754 L0.4117 -1.0392 L0.3424 -1.0392 L0.3424 -0.8923 Q0.3424 -0.8403 0.3873 -0.8403 Q0.3969 -0.8403 0.4105 -0.8434 L0.4105 -0.8102 Q0.3883 -0.8041 0.3719 -0.8041 ZM0.6737 -0.8188 Q0.6254 -0.8041 0.5909 -0.8041 Q0.5323 -0.8041 0.4954 -0.8431 Q0.4584 -0.882 0.4584 -0.944 Q0.4584 -1.0043 0.491 -1.0429 Q0.5236 -1.0815 0.5743 -1.0815 Q0.6224 -1.0815 0.6487 -1.0473 Q0.6749 -1.0131 0.6749 -0.9501 L0.6747 -0.9352 L0.5074 -0.9352 Q0.5179 -0.8407 0.6 -0.8407 Q0.63 -0.8407 0.6737 -0.8569 ZM0.5096 -0.9714 L0.6266 -0.9714 Q0.6266 -1.0453 0.5714 -1.0453 Q0.516 -1.0453 0.5096 -0.9714 ZM0.7579 -0.8102 L0.7579 -1.0754 L0.806 -1.0754 L0.806 -1.0256 Q0.8346 -1.0812 0.889 -1.0812 Q0.8964 -1.0812 0.9044 -1.08 L0.9044 -1.0351 Q0.892 -1.0392 0.8824 -1.0392 Q0.8368 -1.0392 0.806 -0.985 L0.806 -0.8102 Z" stroke="none"
      /><path d="M-1.4683 1.2608 L-1.4543 1.219 Q-1.4165 1.2388 -1.376 1.2388 Q-1.2947 1.2388 -1.2774 1.1526 L-1.2691 1.1109 Q-1.3068 1.1666 -1.3676 1.1666 Q-1.4152 1.1666 -1.4364 1.1319 Q-1.4575 1.0972 -1.4458 1.0384 Q-1.4336 0.9778 -1.394 0.9397 Q-1.3544 0.9017 -1.3037 0.9017 Q-1.2592 0.9017 -1.2345 0.9378 L-1.2284 0.9075 L-1.1801 0.9075 L-1.2187 1.1004 Q-1.2311 1.1626 -1.2436 1.1926 Q-1.256 1.2225 -1.2776 1.2415 Q-1.3158 1.275 -1.3822 1.275 Q-1.4286 1.275 -1.4683 1.2608 ZM-1.2631 1.0809 L-1.2411 0.9708 Q-1.2662 0.9378 -1.3036 0.9378 Q-1.3368 0.9378 -1.3609 0.9644 Q-1.385 0.991 -1.3943 1.0374 Q-1.4117 1.1246 -1.3504 1.1246 Q-1.3087 1.1246 -1.2631 1.0809 ZM-1.033 1.1817 Q-1.0889 1.1817 -1.1129 1.1291 Q-1.137 1.0765 -1.12 0.9917 Q-1.1029 0.9063 -1.0577 0.8543 Q-1.0125 0.8023 -0.9557 0.8023 Q-0.8988 0.8023 -0.8744 0.8543 Q-0.85 0.9063 -0.8669 0.991 Q-0.8843 1.0779 -0.9295 1.1298 Q-0.9747 1.1817 -1.033 1.1817 ZM-1.0253 1.1456 Q-0.9489 1.1456 -0.9178 0.9903 Q-0.8875 0.8384 -0.9629 0.8384 Q-1.0381 0.8384 -1.0687 0.9917 Q-1.0995 1.1456 -1.0253 1.1456 Z" fill="white" stroke="none"
    /></g
    ><g font-family="sans-serif" font-size="0.5px" font-style="italic" stroke-width="0.04" transform="matrix(50,0,0,50,133.4922,113.8831)"
    ><path d="M1.11 -1 L1.87 -1" fill="none"
      /><path d="M1.87 -1.075 L1.87 -0.925 L1.87 -1 Z" stroke="none"
    /></g
    ><g font-family="sans-serif" font-size="0.5px" font-style="italic" stroke-width="0.04" transform="matrix(50,0,0,50,133.4922,113.8831)"
    ><line fill="none" x1="1" x2="1.11" y1="-1" y2="-1"
    /></g
    ><g font-family="sans-serif" font-size="0.5px" font-style="italic" stroke-width="0.04" transform="matrix(50,0,0,50,133.4922,113.8831)"
    ><path d="M-1.87 -1 L-1.11 -1" fill="none"
      /><path d="M-1.11 -1.075 L-1.11 -0.925 L-1.11 -1 Z" stroke="none"
    /></g
    ><g font-family="sans-serif" font-size="0.5px" font-style="italic" stroke-width="0.04" transform="matrix(50,0,0,50,133.4922,113.8831)"
    ><line fill="none" x1="-1.11" x2="-1" y1="-1" y2="-1"
    /></g
  ></g
></svg
>
